docs/.gitbook/assets/icon-airplane-16@dark.svg

<svg width="32" height="32" viewBox="0 0 16 16" fill="none" xmlns="http://www.w3.org/2000/svg">
<rect x="0" y="0" width="16" height="16" fill="#181c1f"/>
<path fill-rule="evenodd" clip-rule="evenodd" d="M5.5 3.5C5.5 2.11929 6.61929 1 8 1C9.38071 1 10.5 2.11929 10.5 3.5V5.76254L13.7834 6.81321C14.5082 7.04515 15 7.71893 15 8.47995V10.25C15 10.4696 14.9037 10.6782 14.7366 10.8207C14.5695 10.9632 14.3484 11.0253 14.1315 10.9906L10.5 10.4095V12.0345L11.8458 13.7944C12.0191 14.0211 12.0488 14.3264 11.9224 14.5823C11.796 14.8381 11.5353 15 11.25 15H4.75C4.46465 15 4.20403 14.8381 4.07762 14.5822C3.9512 14.3264 3.9809 14.021 4.15424 13.7944L5.5 12.0346V10.4095L1.86849 10.9906C1.65164 11.0253 1.43047 10.9632 1.26336 10.8207C1.09626 10.6782 1 10.4696 1 10.25V8.47995C1 7.71893 1.49183 7.04515 2.21664 6.81321L5.5 5.76254V3.5ZM8 2.5C7.44771 2.5 7 2.94772 7 3.5V6.31C7 6.63615 6.78922 6.92491 6.47858 7.02432L2.67381 8.24185C2.57026 8.27498 2.5 8.37123 2.5 8.47995V9.37046L6.13151 8.78942C6.34836 8.75472 6.56953 8.81682 6.73664 8.95931C6.90374 9.10181 7 9.31039 7 9.53V12.2885C7 12.4532 6.9458 12.6133 6.84576 12.7441L6.26773 13.5H9.73235L9.15422 12.7439C9.0542 12.6131 9 12.453 9 12.2884V9.53C9 9.31039 9.09626 9.10181 9.26336 8.95931C9.43047 8.81682 9.65164 8.75472 9.86849 8.78942L13.5 9.37046V8.47995C13.5 8.37124 13.4297 8.27498 13.3262 8.24185L9.52142 7.02432C9.21078 6.92491 9 6.63615 9 6.31V3.5C9 2.94772 8.55228 2.5 8 2.5Z" fill="#fff"/>
</svg>

<svg xmlns="http://www.w3.org/2000/svg" width="32" height="32" fill="none" viewBox="0 0 16 16"><path fill="#181c1f" d="M0 0h16v16H0z"/><path fill="#fff" fill-rule="evenodd" d="M5.5 3.5a2.5 2.5 0 0 1 5 0v2.263l3.283 1.05A1.75 1.75 0 0 1 15 8.48v1.77a.75.75 0 0 1-.868.74l-3.632-.58v1.624l1.346 1.76A.75.75 0 0 1 11.25 15h-6.5a.75.75 0 0 1-.596-1.206l1.346-1.76V10.41l-3.632.582A.75.75 0 0 1 1 10.25V8.48a1.75 1.75 0 0 1 1.217-1.667L5.5 5.763zm2.5-1a1 1 0 0 0-1 1v2.81a.75.75 0 0 1-.521.714L2.674 8.242a.25.25 0 0 0-.174.238v.89l3.632-.58A.75.75 0 0 1 7 9.53v2.759a.75.75 0 0 1-.154.455l-.578.756h3.464l-.578-.756A.75.75 0 0 1 9 12.288V9.53a.75.75 0 0 1 .868-.74l3.632.58v-.89a.25.25 0 0 0-.174-.238L9.521 7.024A.75.75 0 0 1 9 6.31V3.5a1 1 0 0 0-1-1" clip-rule="evenodd"/></svg>
